images/people/people-28.svg

<?xml version="1.0" standalone="no"?><!DOCTYPE svg PUBLIC "-//W3C//DTD SVG 1.1//EN" "http://www.w3.org/Graphics/SVG/1.1/DTD/svg11.dtd"><svg width="120px" height="192px" version="1.1" xmlns="http://www.w3.org/2000/svg" xmlns:xlink="http://www.w3.org/1999/xlink" xml:space="preserve" style="fill-rule:evenodd;clip-rule:evenodd;stroke-linejoin:round;stroke-miterlimit:1.41421;"><g><g id="people-28" transform="matrix(1,0,0,1,-1037.94,-48)"><g transform="matrix(1,0,0,1,0,-12)"><path d="M1128.56,239.218l0.657,4.066l-3.979,-0.005l-0.411,-4.379l3.733,0.318Z" style="fill:#fec;fill-rule:nonzero;"/></g><g transform="matrix(1,0,0,1,0,-12)"><path d="M1129.12,156.005l-3.825,-3.076l-5.239,0.233l-1.009,-0.084l-4.497,3.61l1.499,15.695l2.993,-0.454l0.363,-0.711l2.039,-0.889l3.692,0.446l2.014,1.037l2.537,-0.215l-0.567,-15.592Z" style="fill:#553f37;fill-rule:nonzero;"/></g><g transform="matrix(1,0,0,1,0,-12)"><path d="M1118.45,168.693l1.656,-1.162l1.142,-3.496l2.845,0.738l0.949,2.181l1.96,0.922l0.776,10.853l-4.427,12.936l-4.901,-22.972Z" style="fill:#735a4c;fill-rule:nonzero;"/></g><g transform="matrix(1,0,0,1,0,-12)"><path d="M1121.25,166.508l2.546,-0.061l2.656,-3.59l-0.644,-6.488l-4.911,-0.699l-3.008,1.281l0.244,6.106l3.117,3.451Z" style="fill:#aa8b7e;fill-rule:nonzero;"/></g><g transform="matrix(1,0,0,1,0,-12)"><path d="M1125.68,158.449l1.676,-0.012l0.203,2.916l-1.712,-0.048l-0.167,-2.856Z" style="fill:#aa8b7e;fill-rule:nonzero;"/></g><g transform="matrix(1,0,0,1,0,-12)"><path d="M1118.2,159.026l-1.68,0.501l0.192,2.444l1.497,0.023l-0.009,-2.968Z" style="fill:#aa8b7e;fill-rule:nonzero;"/></g><g transform="matrix(1,0,0,1,0,-12)"><path d="M1130.3,196.07l-1.735,43.147l-3.213,0.078l-1.603,-37.048l2.109,18.676l0.95,24.612l-5.537,-0.632l-1.406,-23.691l-2.983,-24.515l13.418,-0.627Z" style="fill:#ae2025;fill-rule:nonzero;"/></g><g transform="matrix(1,0,0,1,0,-12)"><path d="M1124.07,202.18l2.094,19.952l0.4,15.799l2.264,-4.698l0.914,-25.718l-5.672,-5.335Z" style="fill:#720e1a;fill-rule:nonzero;"/></g><g transform="matrix(1,0,0,1,0,-12)"><path d="M1109.15,175.562l-2.229,-2.238l-4.455,-1.663l-0.08,1.685l3.541,1.908l-3.86,-1.004l-0.313,3.187l5.563,1l1.833,-2.875Z" style="fill:#aa8b7e;fill-rule:nonzero;"/></g><g transform="matrix(1,0,0,1,0,-12)"><path d="M1133.92,193.747l1.118,2.634l0.011,4.385l-1.727,-0.186l-0.445,-3.998l0.166,1.205l-1.476,0.239l0.417,-3.333l1.936,-0.946Z" style="fill:#aa8b7e;fill-rule:nonzero;"/></g><g transform="matrix(1,0,0,1,0,-12)"><path d="M1127.08,167.798l4.513,1.657l3.246,24.93l-2.91,0.267l-2.986,-22.537l1.39,23.954l-13.453,0.628l0.514,-20.948l-2.361,-4.932l3.417,-2.201l1.768,1.94l5.251,-0.043l1.611,-2.715Z" style="fill:#c1beba;fill-rule:nonzero;"/></g><g transform="matrix(1,0,0,1,0,-12)"><path d="M1115.06,170.844l-2.063,10.344l-3.874,-5.625l-1.875,2.812l5.437,8.416l2.416,-0.042l2.417,-11.125" style="fill:#c1beba;fill-rule:nonzero;"/></g><g transform="matrix(1,0,0,1,0,-12)"><path d="M1073.6,140.25l4.799,-1.888l10.424,-0.406l-1.975,-8.332l-12.687,-0.233l-0.561,10.859Z" style="fill:#e4e2dc;fill-rule:nonzero;"/></g><g transform="matrix(1,0,0,1,0,-12)"><path d="M1074.54,138.305l2.553,-1.703l1.857,-5.265l4.293,1.223l1.361,3.346l2.942,1.47l-1.858,6.116l-8.748,0.233l-2.4,-5.42Z" style="fill:#ceab97;fill-rule:nonzero;"/></g><g transform="matrix(1,0,0,1,0,-12)"><path d="M1088.32,233.534l0.852,6.195l-7.038,-0.155l-0.466,-6.658l6.652,0.618Z" style="fill:#2a2b2a;fill-rule:nonzero;"/></g><g transform="matrix(1,0,0,1,0,-12)"><path d="M1081.82,196.062l0.93,46.917l-7.19,-1.083l-4.568,-45.989" style="fill:#e1c5b5;fill-rule:nonzero;"/></g><g transform="matrix(1,0,0,1,0,-12)"><path d="M1081.66,179.494l0.156,19.819l0.737,33.835l5.759,0.386l2.325,-34.433l-8.977,-19.607Z" style="fill:#ceab97;fill-rule:nonzero;"/></g><g transform="matrix(1,0,0,1,0,-12)"><path d="M1096.28,139.698l-8.703,-2.352l-2.274,5.603l-8.052,0.233l-2.709,-4.994l-8.192,3.563l4.211,6.999l-0.293,12l-4.205,48.158l29.846,0.232l-3.885,-47.89l0.703,-12.833l3.553,-8.719Z" style="fill:#49799e;fill-rule:nonzero;"/></g><g transform="matrix(1,0,0,1,0,-12)"><path d="M1093.31,146.812l8.756,23.845l4.067,-1.381l-9.874,-29.557l-2.949,7.093Z" style="fill:#e1c5b5;fill-rule:nonzero;"/></g><g transform="matrix(1,0,0,1,0,-12)"><path d="M1106.12,169.181l1.449,4.097l-1.169,6.704l-2.694,-0.725l0.57,-5.875l0.142,1.838l-2.387,-1.033l0.044,-3.562l4.045,-1.444Z" style="fill:#e1c5b5;fill-rule:nonzero;"/></g><g transform="matrix(1,0,0,1,0,-12)"><path d="M1074.37,250.025l2.614,1.975l4.761,0l1.219,-9.001l-7.354,-1.141l-1.24,8.167Z" style="fill:#2a2b2a;fill-rule:nonzero;"/></g><g transform="matrix(1,0,0,1,0,-12)"><path d="M1078.86,135.089l3.865,0l4.162,-5.351l-0.744,-11.446l-7.424,-1.24l-4.613,1.835l0.149,10.851l4.605,5.351Z" style="fill:#e1c5b5;fill-rule:nonzero;"/></g><g transform="matrix(1,0,0,1,0,-12)"><path d="M1061.81,169.936l-0.984,5.412l1.427,7.047l2.573,-1.444l-0.737,-6.061l0.17,1.838l2.393,-0.595l-0.967,-4.113l-3.875,-2.084Z" style="fill:#e1c5b5;fill-rule:nonzero;"/></g><g transform="matrix(1,0,0,1,0,-12)"><path d="M1070.5,148.375l-4.814,23.682l-4.051,-1.145l4.74,-29.037l4.125,6.5Z" style="fill:#e1c5b5;fill-rule:nonzero;"/></g><g transform="matrix(1,0,0,1,0,-12)"><path d="M1079.98,113.667l8.582,2.708l4.707,23.208l-4.85,5.167l0.059,-5.574l-0.31,-1.646l-1.491,-7.529l-1.865,-9.501l-5.102,-2.083l0.27,-4.75Z" style="fill:#e4e2dc;fill-rule:nonzero;"/></g><g transform="matrix(1,0,0,1,0,-12)"><path d="M1079.8,118.417l-5.023,1.887l-0.588,22.196l-4.248,-0.749l0.832,-23.918l9.334,-4.25l-0.307,4.834Z" style="fill:#e4e2dc;fill-rule:nonzero;"/></g><g transform="matrix(1,0,0,1,0,-12)"><path d="M1120.55,250.214l1.492,1.327l3.136,-0.073l0.682,-6.207l-4.621,-0.445l-0.689,5.398Z" style="fill:#fec;fill-rule:nonzero;"/></g></g></g></svg>

<?xml version="1.0" encoding="UTF-8" standalone="no"?>
<!DOCTYPE svg PUBLIC "-//W3C//DTD SVG 1.1//EN" "http://www.w3.org/Graphics/SVG/1.1/DTD/svg11.dtd">
<svg width="100%" height="100%" viewBox="0 0 140 220" version="1.1" xmlns="http://www.w3.org/2000/svg" xmlns:xlink="http://www.w3.org/1999/xlink" xml:space="preserve" xmlns:serif="http://www.serif.com/" style="fill-rule:evenodd;clip-rule:evenodd;stroke-linejoin:round;stroke-miterlimit:2;">
    <g id="people-28" transform="matrix(1.27,0,0,1.27,-1324.38,-84.8)">
        <g transform="matrix(1,0,0,1,0,-12)">
            <path d="M1128.56,239.218L1129.22,243.284L1125.24,243.279L1124.83,238.9L1128.56,239.218Z" style="fill:rgb(255,238,204);fill-rule:nonzero;"/>
        </g>
        <g transform="matrix(1,0,0,1,0,-12)">
            <path d="M1129.12,156.005L1125.3,152.929L1120.06,153.162L1119.05,153.078L1114.55,156.688L1116.05,172.383L1119.05,171.929L1119.41,171.218L1121.45,170.329L1125.14,170.775L1127.15,171.812L1129.69,171.597L1129.12,156.005Z" style="fill:rgb(85,63,55);fill-rule:nonzero;"/>
        </g>
        <g transform="matrix(1,0,0,1,0,-12)">
            <path d="M1118.45,168.693L1120.11,167.531L1121.25,164.035L1124.1,164.773L1125.05,166.954L1127.01,167.876L1127.78,178.729L1123.35,191.665L1118.45,168.693Z" style="fill:rgb(115,90,76);fill-rule:nonzero;"/>
        </g>
        <g transform="matrix(1,0,0,1,0,-12)">
            <path d="M1121.25,166.508L1123.8,166.447L1126.45,162.857L1125.81,156.369L1120.9,155.67L1117.89,156.951L1118.13,163.057L1121.25,166.508Z" style="fill:rgb(170,139,126);fill-rule:nonzero;"/>
        </g>
        <g transform="matrix(1,0,0,1,0,-12)">
            <path d="M1125.68,158.449L1127.36,158.437L1127.56,161.353L1125.85,161.305L1125.68,158.449Z" style="fill:rgb(170,139,126);fill-rule:nonzero;"/>
        </g>
        <g transform="matrix(1,0,0,1,0,-12)">
            <path d="M1118.2,159.026L1116.52,159.527L1116.71,161.971L1118.2,161.994L1118.2,159.026Z" style="fill:rgb(170,139,126);fill-rule:nonzero;"/>
        </g>
        <g transform="matrix(1,0,0,1,0,-12)">
            <path d="M1130.3,196.07L1128.56,239.217L1125.35,239.295L1123.75,202.247L1125.86,220.923L1126.81,245.535L1121.27,244.903L1119.86,221.212L1116.88,196.697L1130.3,196.07Z" style="fill:rgb(174,32,37);fill-rule:nonzero;"/>
        </g>
        <g transform="matrix(1,0,0,1,0,-12)">
            <path d="M1124.07,202.18L1126.16,222.132L1126.56,237.931L1128.83,233.233L1129.74,207.515L1124.07,202.18Z" style="fill:rgb(114,14,26);fill-rule:nonzero;"/>
        </g>
        <g transform="matrix(1,0,0,1,0,-12)">
            <path d="M1109.15,175.563L1106.92,173.325L1102.46,171.662L1102.38,173.347L1105.92,175.255L1102.06,174.25L1101.75,177.438L1107.31,178.438L1109.15,175.563Z" style="fill:rgb(170,139,126);fill-rule:nonzero;"/>
        </g>
        <g transform="matrix(1,0,0,1,0,-12)">
            <path d="M1133.92,193.747L1135.04,196.381L1135.05,200.766L1133.33,200.58L1132.88,196.582L1133.05,197.787L1131.57,198.026L1131.99,194.693L1133.92,193.747Z" style="fill:rgb(170,139,126);fill-rule:nonzero;"/>
        </g>
        <g transform="matrix(1,0,0,1,0,-12)">
            <path d="M1127.08,167.798L1131.59,169.455L1134.84,194.385L1131.93,194.652L1128.94,172.115L1130.33,196.069L1116.88,196.697L1117.39,175.749L1115.03,170.817L1118.45,168.616L1120.22,170.556L1125.47,170.513L1127.08,167.798Z" style="fill:rgb(193,190,186);fill-rule:nonzero;"/>
        </g>
        <g transform="matrix(1,0,0,1,0,-12)">
            <path d="M1115.06,170.844L1113,181.188L1109.13,175.563L1107.25,178.375L1112.69,186.791L1115.1,186.749L1117.52,175.624" style="fill:rgb(193,190,186);fill-rule:nonzero;"/>
        </g>
        <g transform="matrix(1,0,0,1,0,-12)">
            <path d="M1073.6,140.25L1078.4,138.362L1088.83,137.956L1086.85,129.624L1074.16,129.391L1073.6,140.25Z" style="fill:rgb(228,226,220);fill-rule:nonzero;"/>
        </g>
        <g transform="matrix(1,0,0,1,0,-12)">
            <path d="M1074.54,138.305L1077.1,136.602L1078.95,131.337L1083.25,132.56L1084.61,135.906L1087.55,137.376L1085.69,143.492L1076.94,143.725L1074.54,138.305Z" style="fill:rgb(206,171,151);fill-rule:nonzero;"/>
        </g>
        <g transform="matrix(1,0,0,1,0,-12)">
            <path d="M1088.32,233.534L1089.17,239.729L1082.13,239.574L1081.66,232.916L1088.32,233.534Z" style="fill:rgb(42,43,42);fill-rule:nonzero;"/>
        </g>
        <g transform="matrix(1,0,0,1,0,-12)">
            <path d="M1081.82,196.063L1082.75,242.98L1075.56,241.897L1070.99,195.908" style="fill:rgb(225,197,181);fill-rule:nonzero;"/>
        </g>
        <g transform="matrix(1,0,0,1,0,-12)">
            <path d="M1081.66,179.494L1081.82,199.313L1082.56,233.148L1088.32,233.534L1090.64,199.101L1081.66,179.494Z" style="fill:rgb(206,171,151);fill-rule:nonzero;"/>
        </g>
        <g transform="matrix(1,0,0,1,0,-12)">
            <path d="M1096.28,139.698L1087.58,137.346L1085.3,142.949L1077.25,143.182L1074.54,138.188L1066.35,141.751L1070.56,148.75L1070.27,160.75L1066.06,208.908L1095.91,209.14L1092.03,161.25L1092.73,148.417L1096.28,139.698Z" style="fill:rgb(73,121,158);fill-rule:nonzero;"/>
        </g>
        <g transform="matrix(1,0,0,1,0,-12)">
            <path d="M1093.31,146.813L1102.07,170.658L1106.14,169.277L1096.26,139.72L1093.31,146.813Z" style="fill:rgb(225,197,181);fill-rule:nonzero;"/>
        </g>
        <g transform="matrix(1,0,0,1,0,-12)">
            <path d="M1106.12,169.181L1107.57,173.278L1106.4,179.982L1103.71,179.257L1104.28,173.382L1104.42,175.22L1102.03,174.187L1102.08,170.625L1106.12,169.181Z" style="fill:rgb(225,197,181);fill-rule:nonzero;"/>
        </g>
        <g transform="matrix(1,0,0,1,0,-12)">
            <path d="M1074.37,250.025L1076.98,252L1081.74,252L1082.96,242.999L1075.61,241.858L1074.37,250.025Z" style="fill:rgb(42,43,42);fill-rule:nonzero;"/>
        </g>
        <g transform="matrix(1,0,0,1,0,-12)">
            <path d="M1078.86,135.089L1082.73,135.089L1086.89,129.738L1086.15,118.292L1078.72,117.052L1074.11,118.887L1074.26,129.738L1078.86,135.089Z" style="fill:rgb(225,197,181);fill-rule:nonzero;"/>
        </g>
        <g transform="matrix(1,0,0,1,0,-12)">
            <path d="M1061.81,169.937L1060.83,175.349L1062.26,182.396L1064.83,180.952L1064.09,174.891L1064.26,176.729L1066.65,176.134L1065.69,172.021L1061.81,169.937Z" style="fill:rgb(225,197,181);fill-rule:nonzero;"/>
        </g>
        <g transform="matrix(1,0,0,1,0,-12)">
            <path d="M1070.5,148.375L1065.69,172.057L1061.63,170.912L1066.38,141.875L1070.5,148.375Z" style="fill:rgb(225,197,181);fill-rule:nonzero;"/>
        </g>
        <g transform="matrix(1,0,0,1,0,-12)">
            <path d="M1079.98,113.667L1088.56,116.375L1093.27,139.583L1088.42,144.75L1088.48,139.176L1088.17,137.53L1086.68,130.001L1084.81,120.5L1079.71,118.417L1079.98,113.667Z" style="fill:rgb(228,226,220);fill-rule:nonzero;"/>
        </g>
        <g transform="matrix(1,0,0,1,0,-12)">
            <path d="M1079.8,118.417L1074.77,120.304L1074.19,142.5L1069.94,141.751L1070.77,117.833L1080.1,113.583L1079.8,118.417Z" style="fill:rgb(228,226,220);fill-rule:nonzero;"/>
        </g>
        <g transform="matrix(1,0,0,1,0,-12)">
            <path d="M1120.56,250.214L1122.05,251.541L1125.18,251.468L1125.87,245.261L1121.24,244.816L1120.56,250.214Z" style="fill:rgb(255,238,204);fill-rule:nonzero;"/>
        </g>
    </g>
</svg>
